assets/img/braze_icons/speedometer-03.svg

<svg fill="none" height="24" viewBox="0 0 24 24" width="24" xmlns="http://www.w3.org/2000/svg"><path clip-rule="evenodd" d="m12 1c-6.07513 0-11 4.92487-11 11 0 6.0751 4.92487 11 11 11 6.0751 0 11-4.9249 11-11 0-6.07513-4.9249-11-11-11zm-6 11c0-3.31371 2.68629-6 6-6 .5523 0 1-.44772 1-1s-.4477-1-1-1c-4.41828 0-8 3.58172-8 8 0 .5523.44772 1 1 1s1-.4477 1-1zm11.207-3.79289c.3905-.39053.3905-1.02369 0-1.41422-.3905-.39052-1.0237-.39052-1.4142 0l-3.2749 3.27481c-.1652-.0442-.3388-.0677-.5179-.0677-1.1046 0-2 .8954-2 2s.8954 2 2 2 2-.8954 2-2c0-.1792-.0236-.3529-.0678-.5181z" fill="#801ed7" fill-rule="evenodd"/></svg>

<svg width="24" height="24" viewBox="0 0 24 24" fill="none" xmlns="http://www.w3.org/2000/svg">
<path fill-rule="evenodd" clip-rule="evenodd" d="M12 1C5.92487 1 1 5.92487 1 12C1 18.0751 5.92487 23 12 23C18.0751 23 23 18.0751 23 12C23 5.92487 18.0751 1 12 1ZM6 12C6 8.68629 8.68629 6 12 6C12.5523 6 13 5.55228 13 5C13 4.44772 12.5523 4 12 4C7.58172 4 4 7.58172 4 12C4 12.5523 4.44772 13 5 13C5.55228 13 6 12.5523 6 12ZM17.207 8.20711C17.5975 7.81658 17.5975 7.18342 17.207 6.79289C16.8165 6.40237 16.1833 6.40237 15.7928 6.79289L12.5179 10.0677C12.3527 10.0235 12.1791 10 12 10C10.8954 10 10 10.8954 10 12C10 13.1046 10.8954 14 12 14C13.1046 14 14 13.1046 14 12C14 11.8208 13.9764 11.6471 13.9322 11.4819L17.207 8.20711Z" fill="#801ED7"/>
</svg>
